X:1
T:Aus tiefer Not (mel. 2, 4vv-1. XLVIII)
T:Michael Praetorius
T:Aus tiefer Not (mel. 2, 4vv-1, XLVIII)
C:Michael Praetorius
%%score [ 1 2 3 4 ]
L:1/8
Q:1/4=140
M:4/2
K:C
V:1 treble nm="Soprano 1" snm="S 1"
V:2 treble nm="Soprano 2" snm="S 2"
V:3 treble nm="Alto" snm="A"
V:4 bass nm="Bass" snm="B"
V:1
 c8 B4 c4 | d8 d8 | c4 d4 e8 | f8 e4 d4 | c8 B4 c4 | d8 c8 :| c8 d4 f4 | e8 c8 | d4 B4 A8 | %9
w: Aus tie- fer|Not schrei|ich zu dir,|Herr Gott, er-|hör, _ mein|Ru- fen.|Denn so du|willst das|se- hen an,|
w: Dein gnä- dig|Oh- ren|kehr zu mir,|und mei- ner|Bitt _ sie|öf- fen.||||
 B8 G4 G4 | d8 e8 | f4 d4 c8 | g8 e4 f4 | d6 c2 B4 c4 | d8 c8- | c16 |] %16
w: was Sünd und|Un- recht|ist ge- tan,|wer kann, Herr,|für _ _ dir|blei- ben?|_|
w: |||||||
V:2
 G8 G4 E4 | G8 G8 | E4 F4 G8 | A8 E4 G4 | G12 G4 | G8 G8 :| G8 B4 c4- | c4 A4 A8 | B4 G4 ^F8 | %9
w: Aus tie- fer|Not schrei|ich zu dir,|Herr Gott, er-|hör, mein|Ru- fen.|Denn so du|_ willst das|se- hen an,|
w: Dein gnä- dig|Oh- ren|kehr zu mir,|und mei- ner|Bitt sie|öf- fen.||||
 G8 B4 G4- | G4 ^F4 G8 | A4 B4 A8 | d8 G4 A4 | B6 A2 G4 E4 | G8 G8- | G16 |] %16
w: was Sünd und|_ Un- recht|ist ge- tan,|wer kann, Herr,|für _ _ dir|blei- ben?|_|
w: |||||||
V:3
 E8 D4 C4 | B,8 B,8 | C4 A,4 B,8 | D8 C4 D4 | E8 D4 C4 | B,8 E8 :| E8 G4 A4 | G2 F2 E8 F4 | %8
w: Aus tie- fer|Not schrei|ich zu dir,|Herr Gott, er-|hör, _ mein|Ru- fen.|Denn so du|willst _ _ das|
w: Dein gnä- dig|Oh- ren|kehr zu mir,|und mei- ner|Bitt _ sie|öf- fen.|||
 D4 D4 D8 | D12 C4 | B,4 A,4 C8 | C4 G4 E8 | B,8 E4 C4 | G2 FE D8 C4- | C4 B,4 C6 D2 | E16 |] %16
w: se- hen an,|was Sünd|und Un- recht|ist ge- tan,|wer kann, Herr,|für _ _ _ dir|_ blei- ben? _|_|
w: ||||||||
V:4
 C,8 G,4 A,4 | G,8 G,8 | A,4 F,4 E,8 | D,8 A,4 B,4 | C8 G,4 E,4 | G,8 C,8 :| C8 G,4 F,4 | C8 A,8 | %8
w: Aus tie- fer|Not schrei|ich zu dir,|Herr Gott, er-|hör, _ mein|Ru- fen.|Denn so du|willst das|
w: Dein gnä- dig|Oh- ren|kehr zu mir,|und mei- ner|Bitt _ sie|öf- fen.|||
 G,4 G,4 D,8 | G,8 E,4 E,4 | D,8 C,8 | F,4 G,4 A,8 | G,8 C4 F,4 | G,12 A,4 | G,8 C,8- | C,16 |] %16
w: se- hen an,|was Sünd und|Un- recht|ist ge- tan,|wer kann, Herr,|für dir|blei- ben?|_|
w: ||||||||

